X: 119003
T: The KEEL ROW
Q: "Highland Schottische."
R: Schottische.
%R: shottish
B: James Kerr "Merry Melodies" v.1 p.19 s.0 #3
Z: 2017 John Chambers <jc:trillian.mit.edu>
M: C
L: 1/8
K: A
|: ue>ud |\
vc2 uA>uc vd2 uB>ud | c2 A>c B>G E>d |\
c2 A>c d2 B>d | c>A B>G A2 ::\
ue>ud |\
c<e e<a f2 ue>ud | c2 A>c B>G E>d |\
c<e ea f2 ue>ud | c>A B>G A2 :|

%%sep 1 1 500
%%sep 1 1 500

